X:1
T:Title
%%score { ( 1 3 ) | ( 2 4 ) }
L:1/8
Q:1/4=90
M:6/8
K:D
V:1 treble nm="Grand Piano"
V:3 treble 
V:2 bass 
V:4 bass 
V:1
 [FA]>[GB][FA] FED | d3 B3 | [FA]>[GB][FA] [A,DF][K:bass][A,CE][F,D] |[M:7/8] E3 z z z2[K:treble] | %4
w: Peter~Bilhorn * * * * *||||
[M:3/4] F>F FF GA |[M:7/8] B3 d3 B |[M:3/4] A>A Ac Bc | [Fd]6 | B>B B d3 | [FA]>[FA] [FA] F3 | %10
w: ||||||
 EA ce Bc |[M:7/8] [A,A]-[A,A]-[A,A]- [A,A]3 [A,GA] |[M:3/4] z2 z2 z B |[M:7/8] [FA]3 [Fd]3 [DGB] | %14
w: ||||
[M:3/4] [DFA]>[DFA] [DFA][DEG] [A,DF][K:bass][G,CE] | [F,D]6 |] %16
w: ||
V:2
 [D,D]>[D,D][D,D] [D,A,D][E,A,C][F,A,] | [G,B,D]3 [G,DG]3 | [D,D]>[D,D][D,D] D,A,,A,, | %3
[M:7/8] z z2 A3 A,, |[M:3/4] [D,A,D]>[D,A,D] [D,A,D][D,A,D] [E,A,C][F,A,D] | %5
[M:7/8][K:treble] [G,D]3 [G,B,G]3 [G,DG] |[M:3/4] [A,DF]>[A,DF] [A,DF][A,EG] [A,CG][A,EG] | %7
 [D,D]6 | [G,DG]>[G,DG] [G,DG] [G,B,G]3 | [D,D]>[D,D] [D,D] [D,A,D]3 | %10
 [E,A,C][E,A,C] [E,A,E][E,^G,E] [E,DE][E,G,E] |[M:7/8] z2 F G3 C, | %12
[M:3/4] [D,A,]>[D,A,] [F,A,]G, [G,A,].[G,B,G] |[M:7/8] [D,D]3 [D,A,]3 G,, | %14
[M:3/4] A,,>A,, A,,A,, A,,A,, | D,6 |] %16
V:3
 x6 | x6 | x4[K:bass] x2 |[M:7/8] [G,C]-[G,C]-[G,C]- [G,C]3[K:treble] [A,CG] |[M:3/4] x6 | %5
[M:7/8] x7 |[M:3/4] x6 | x6 | x6 | x6 | x6 |[M:7/8] C2 z z z z2 | %12
[M:3/4] [Fd]>[Gd] [Ad][Bd] .[Ac]>C |[M:7/8] x7 |[M:3/4] x5[K:bass] x | x6 |] %16
V:4
 x6 | x6 | x6 |[M:7/8] A,,-A,,-A,,- A,,3 z |[M:3/4] x6 |[M:7/8][K:treble] x7 |[M:3/4] x6 | x6 | %8
 x6 | x6 | x6 |[M:7/8] A,,-A,,-A,,- A,,3 z |[M:3/4] x6 |[M:7/8] x7 |[M:3/4] x6 | x6 |] %16

